/* XPM */
static const char *jazz_icon_xpm[] = {
"32 32 31 1",
"  c None",
". c #23204A",
"# c #1C1545",
"a c #1C1644",
"b c #191541",
"c c #151138",
"d c #140E33",
"e c #130F45",
"f c #313451",
"g c #3C4764",
"h c #476184",
"i c #4B7392",
"j c #49A5D7",
"k c #191C3E",
"l c #677089",
"m c #808396",
"n c #6788A9",
"o c #171739",
"p c #A3A9BC",
"q c #0F0E2C",
"r c #0E0D2A",
"s c #0D0827",
"t c #131233",
"u c #08001A",
"v c #11112C",
"w c #B0E2F0",
"x c #000010",
"y c #040412",
"z c #12162B",
"A c #FDFEFE",
"B c #000000",
"                                ",
"                                ",
"      ....................      ",
"    ..##aa######a###a#a#a#..    ",
"   .#baaaaaaaaaaaabaaaaaaab#.   ",
"   abbbbbbbbcddddbabbbeaabbba   ",
"  .bbbbbbbb.fghijjidbkfeebbbb.  ",
"  abbbbbdfjjjjjjjjjdelmff.ebba  ",
"  kcbbbbdgjjjjjjiindbfgfmmbbck  ",
"  kcoooodgjggghhnpnqbcecgfcock  ",
"  kccccoqgjjpppjnjnrococccccck  ",
"  kccccorgjhhf.ksgnsocccccccck  ",
"  ktoooosgjuqvtovhnrkoooooootk  ",
"  kdttttsgjsotctugnscttttttttk  ",
"  odtdttugjstts.ginsttttttttdo  ",
"  oqttrtkhjstrfjppnqttttttttqo  ",
"  oqtv.jjjjroshwjpjkvtttttttqo  ",
"  orvuhjjjjorqtinngsqqqqqqqqro  ",
"  orqskjjjisqqruqssqqqqqqqqqro  ",
"  trrvsr.kurvvqvrrvvrqvrrvvrrt  ",
"  trsxuruxrsxuuxuruuruxrsxxsst  ",
"  tsomlygmr.mlfmgyllygmr.mlzst  ",
"  txgAwBmAzgAApAmBwwBmAzgAAfut  ",
"  zxfApBmAzfAwpAmBpwBmAzfAAfuz  ",
"  zxfApBmAyfAApAmBpwBmAyfAAfxz  ",
"  oxfAAlpAmmAwpAwlwAlpAmmAAfxz  ",
"   xgAApAAwpAApAApAApAAwpAAfy   ",
"   vzmmglmggmlfmmflmglmggmlvz   ",
"    zxxxxBxxBxxBBxxBxxBxxxxz    ",
"      ozzzzzzzvzzzzzvzzzzo      ",
"                                ",
"                                "
};
